X:1
T:C Major                      Jeremiah Ingalls, 1805
T:Anonymous author, First published 1794                     66. 86. (S. M.)
T:Unity
T:Treble-Tenor-Bass transcribed from Ingalls' Christian Harmony , 1805 ; Counter by B. C. Johnston, 2017..
%%score [ 1 2 3 4 ]
L:1/8
Q:1/4=110
M:4/4
K:C
V:1 treble nm="Treble" snm="Tr."
V:2 treble nm="Counter" snm="C."
V:3 treble-8 nm="Tenor" snm="T."
V:4 bass nm="Bass" snm="B."
V:1
"^1. Let    strife  for–ev–er      cease,   And   en – vy   quit      the         field,     Come  join  and    live    in    love    and     peace,   And  to  the  gos – pel   yield.\n2. Let     bit –ter  words  no  more   A  – mong  the  saints  re    –   main;      Let     eve –  ry     mem –ber  eve –  ry         hour.    Sub – mit  to  Je – sus’    reign." e4 | %1
 c2 A2 c2 d2 | e4 d4 | c2 B2 c2 A2 | B8 |: d4 c2 B2 | c2 G2 A2 dc | !fermata!B4 e4 | c2 f2 e2 d2 | %9
 e8 :| %10
V:2
"^3. One   Lord  we  have   to    fear,    One  faith  we   all       con   –   fess;        To      the    same   bap  – ti  –  sm    ad    –   here,   And  mag–ni–fy   free   grace.\n4. Then why should we contend  For  meat  and  drink  and      dress,      And  cru –  ci   –   fy    the    Lord    a   –   gain,  And pierce his wounds afresh;" E4 | %1
 A2 c2 c2 AB | c4 G4 | c2 B2 cG A2 | B8 |: G4 c2 G2 | A2 G2 AB dc | !fermata!B4 c4 | A2 c2 G2 AB | %9
 c8 :| %10
V:3
"^5. When bit–ter  words  a  –  rise,  And  Sa  –  tan    has     his         ends;      We  wound  the  heart and hands of Christ   A – midst  his cho –sen  friends.\n6. No  more  we’ll  feel  the  flame, Nor  judge  our–selves  too    wise;       But  search with  care  to    find     the  beam   That  lurks  with–in  our  eyes." c4 | %1
 A2 c2 G2 AB | c4 d4 | e2 d2 eg fe | d8 |: g4 e2 dB | c2 e2 dc A2 | !fermata!^G4 c4 | A2 c2 G2 AB | %9
 c8 :| %10
V:4
"^7.  Un – to   the  world  we  prove,  That  we  di – sci    –  ples        are;        They  shall  be – hold  us   walk    in           love,  And  say  the  Lord  is      there.\n8.  Then  we  will  live  like  those   Who  now  a –  gree    in        love;        And  when  our  eyes  by  death   shall    close,  We’ll  join will  them  a –bove." C,4 | %1
 F,2 F,2 E,2 D,2 | C,4 G,4 | C2 G,2 C2 DC | G,8 |: G,4 C2 G,2 | A,2 E,2 D,2 D,2 | %7
 !fermata!E,4 C,4 | F,2 F,2 E,2 G,2 | C,8 :| %10

